X:270
%%etbk:tnset id:82,pos:2,rep:3x,ant:
%%etbk:wsite http://www.thesession.org/tunes/display/2483
%%etbk:video src:ytube,cde:sLGUg4LdEwA,desc:
%%etbk:pldat 2015-07-07T10:10,2015-02-16T19:10,2014-12-16T17:37,2014-12-14T16:03,2014-11-26T16:33,2014-09-21T11:33,2014-02-15T16:36,2014-02-04T18:10,2013-11-19T17:15,2013-09-17T10:16,2013-08-27T18:39,2013-05-07T20:01,2013-05-07T18:10
T: When The Cock Crows It Is Day
Z: Piano Box Version by Martin Fleischmann
H: Created 2013-02-19 /  Last Modified 2015-07-07
M: 6/8
L: 1/8
R: jig
K: Gmaj
!1!D |: "G"!2!GAB !4!BAG | !5!d3 d2!1!D | !2!GAB !4!BAG | "D"!3!A!2!A!3!A !3!ABA |
"G"!1!GA!3!B !3!B!2!A!1!G | "C"!2!B!3!c!1!d !2!e!4!g!2!e | "G"!1!d!3!B!1!G "D"!2!A!1!G!2!E |1 "G"!1!G3 !2!G2!1!D:|2 "G"!1!G3 !1!G2!3!d |
|: "G"!5!g!3!dd gdd | "C"!2!c3 c2d | "G"!5!g!3!dd !5!g!3!d!2!B | "D"!1!A3 !1!A!2!B!3!d |
"G"!5!g!3!dd !5!g!3!d!1!B | "C"!2!c2d !4!e!5!g!4!e | "G"!3!d!2!B!1!G "D"!2!A!1!G!2!E |1 "G"!1!G3 !1!G2!3!d:|2 "G"!2!G3 G2!1!D:|
|"var bar 2" !5!d!1!Dd !5!d!4!B!3!A |


